X:1
T:Vexilla Regis, LM
T:Vexilla Regis, LM
T:Proper Sarum Melody
T:Public Domain Courtesy of the Cyber Hymnal™
C:Proper Sarum Melody
Z:Public Domain
Z:Courtesy of the Cyber Hymnal™
%%score ( 1 2 ) ( 3 4 )
L:1/8
Q:1/4=113
M:none
K:A
V:1 treble 
V:2 treble 
V:3 bass 
V:4 bass 
V:1
 z4 [CA]2 [EB]2 [Fd]2 | c2 B[FA] [GB]2 | B3 c [GB]2 [FA]2 | [EG]4 [CF]4 | [GB]2 [EB]2 [Ec]2 | %5
 [CA]3 [EG] [DF]2 [CA]2 | G2 A2 [DF]2 [B,E]2 | E4 F2 [CF]2 | [DF]2 [CA]2 [DF]2 [EA]2 | %9
 [FA]3 [EB] [Ec]2 [FB]2 | [GB]4 [EA]4 | [EA]2 A3 c | [Fd]2 (cB) [Ec]2 | [FA]3 [EG] [DF]2 [CA]2 | %14
 G2 A2 [DF]2 [B,E]2 | E4 F4 |] %16
V:2
 x10 | E3 x3 | E4 x4 | x8 | x6 | x8 | E4 x4 | C6 x2 | x8 | x8 | x8 | x2 F4 | x2 E2 x2 | x8 | %14
 E4 x4 | C6 x2 |] %16
V:3
 z4 F,2 [E,G,]2 [D,A,]2 | A,2 [G,B,][F,C] [G,E]2 | G,4 [E,E]2 [F,C]2 | [C,C]4 [F,A,]4 | %4
 [E,E]2 [E,G,]2 [C,G,]2 | [F,A,]3 [C,C] [D,A,]2 [F,A,]2 | [E,B,]2 [A,,C]2 [D,A,]2 [E,G,]2 | %7
 A,6 [F,A,]2 | [D,A,]2 [A,,A,]2 [D,A,]2 [C,A,]2 | [F,C]3 [G,B,] A,2 [D,D]2 | [E,B,]4 [A,C]4 | %11
 [A,C]2 [F,C]4 | [B,,B,]2 G,2 A,2 | C4 [D,A,]2 [F,A,]2 | [E,B,]2 [A,,C]2 [D,A,]2 [E,G,]2 | %15
 [C,G,]4 [F,,A,]4 |] %16
V:4
 x4 F,2 x4 | A,2 x4 | E,3 C, x4 | x8 | x6 | x8 | x8 | A,,4 F,,2 x2 | x8 | x4 A,2 x2 | x8 | x6 | %12
 x2 (C,E,) A,2 | F,3 C, x4 | x8 | x8 |] %16

